X: 919
T: Alistair J Sim
R: jig
M: 6/8
K: Gmajor
d|B>cd G2 B|D>GB d2 d|D>GB e>dB|c3 c2 B|
A>Bc F2 A|D>FA d2 d|D>FA e>dc|B3 B2 d/c/|
B>cd G2 B|D>GB d2 d|gfg a<bg|e3 e2 c|
c>de e>dc|g>fg d>BG|D>FA c>AF|G3 G2||
A|B3 B>AG|D2 G B3|d>cB c2 B|A3 A2 F|
D>FA A>Bc|f3 f2 e|d>ed A>Bc|B3 B2 D/G/|
B2 B B>AG|D2 G B2 d|gfg a<bg|e3 e2 c|
c>de e>dc|g>fg d>BG|D>FA c>AF|G3 G2||

